X:1
T: Fields of Old Erin
C:
R:Jig
Q:180
K:G
M:6/8
L:1/16
G2A2G2 B2A2G2|B2c2B2 B2A2G2|c4e2 d2c2B2|c2B2c2 A4d2|
G2A2G2 B2A2G2|B2c2B2 B2A2G2|c4e2 d2c2B2|c2A2F2 G4d2
|:b4g2 g2f2g2|d2e2f2 g2f2g2|a4g2 f2e2f2|1d2e2f2 g6:|2d2e2f2 g4(3DEF|
G2B2d2 e2d2B2|d2e2f2 g2d2B2|c2B2A2 B2A2G2|A2B2G2 F2E2D2|
G2B2d2 e2d2B2|d2e2f2 g2d2B2|c6 B6|A2E2F2 G6||

